X:1
T:Blackwater Falls, 99.99 D
T:Blackwater Falls, 99.99 D
T:Ivy Ernest Rippetoe, 1918
T:Public Domain Courtesy of the Cyber Hymnal™
C:Ivy Ernest Rippetoe, 1918
Z:Public Domain
Z:Courtesy of the Cyber Hymnal™
%%score 1 ( 2 3 )
L:1/8
Q:1/4=103
M:4/4
K:Ab
V:1 treble 
V:2 bass 
V:3 bass 
V:1
 [CE] | [CE]2 [CE]2 [DF] [CE]2 [CE] | [EA]2 [EB]2 [Ec]3 [=EB] | [FA]2 [DF]2 [FA] [FA]2 [FB] | %4
 [FA]2 [DF]2 [CE]3 [CE] | [CE]2 [CE]2 [DF] [CE]2 [CE] | [EA]2 [EB]2 [Ec]3 [Ec] | %7
 [Ae]2 [Ec]2 [Ae] [Ae]2 [Ac] | [Ac]2 [EB]2 [EA]3 [Ec] | [Ae]2 [Ec]2 [Ae] [Ae]2 [Ac] | %10
 [Ac]2 [GB]2 [FA]3 [EB] | [FA]2 [DF]2 [FA] [FA]2 [EA] | [FB]2 [Ac]2 [GB]3 [CE] | %13
 [CE]2 [CE]2 [DF] [CE]2 [CE] | [EA]2 [EB]2 [Ec]3 [Ec] | [Ae]2 [Ec]2 [Ae] [Ae]2 [Ac] | %16
 [Ac]2 [EB]2 [EA]3 |] %17
V:2
 [A,,A,] | [A,,A,]2 [A,,A,]2 [A,,A,] [A,,A,]2 [A,,A,] | [C,A,]2 [E,G,]2 A,3 [C,A,] | %3
 [D,D]2 [D,A,]2 [D,D] [D,D]2 [D,D] | [D,D]2 [D,A,]2 [A,,A,]3 [A,,A,] | %5
 [A,,A,]2 [A,,A,]2 [A,,A,] [A,,A,]2 [A,,A,] | [C,A,]2 [E,G,]2 A,3 A, | %7
 [A,C]2 A,2 [A,C] [A,C]2 [A,E] | [E,E]2 [E,D]2 [A,,C]3 A, | [A,C]2 A,2 [A,C] [A,C]2 [A,E] | %10
 [A,E]2 [E,D]2 [F,C]3 [C,A,] | [D,D]2 [D,A,]2 [D,D] [D,D]2 [C,E] | %12
 [B,,=D]2 [B,,D]2 [E,E]3 [A,,A,] | [A,,A,]2 [A,,A,]2 [A,,A,] [A,,A,]2 [A,,A,] | %14
 [C,A,]2 [E,G,]2 A,3 A, | [A,C]2 A,2 [A,C] [A,C]2 [A,E] | [E,E]2 [E,D]2 [A,,C]3 |] %17
V:3
 x | x8 | x4 A,3 x | x8 | x8 | x8 | x4 A,3 A, | x2 A,2 x4 | x7 A, | x2 A,2 x4 | x8 | x8 | x8 | x8 | %14
 x4 A,3 A, | x2 A,2 x4 | x7 |] %17

